X:39
T:La Belle Jeannette. JJo.039
S:J.Jones MS,1801,N.Shrops.
N:Nice little French stylepolka. Repeat marks are shown at the
N:beginning of the B part, but nowhere else. I have not included them
N:in this transcription.
A:N Shropshire
Z:Neil Brookes 2006
M:2/4
L:1/8
Q:1/2=70
K:C
c>dee|ffd2| g/a/g/f/ e/f/e/d/|c/d/e/f/ ed|!
c>dee|ffd2| g/a/g/f/ ed|e/d/c/B/ c2||!
c/d/e/f/ ge|fg ec|c/d/e/f/ ge|fgc’2|!
c/d/e/f/ ge|fg ec|c/d/e/f/ ge|fgc’2|!
c>dee|ffd2| g/a/g/f/ e/f/e/d/|c/d/e/f/ ed|!
c>dee|ffd2| g/a/g/f/ ed|e/d/c/B/ c2|]

